X:1005
T:Anglais efter Jöns Persson
T:(SvL Skåne nr. 88)
R:Anglais
Z:Patrik Månsson, 2009-01-12
O:Roalöv, Skåne
S:efter Jöns Persson
S:Svenska Låtar Skåne
B:Svenska Låtar Skåne
M:C
L:1/8
K:D
|: AFDF Adfa | ageg g2 f2 | AFDF cdfa | (bg)ec d2 z2 :|
|: fedc dAFA | BAGF F2 E2 | EGFE DFAd | (fa)ge d2 z2 :|
(:musicend:)

(:music:)
